public/assets/apply/stepper/sole.svg

<svg width="62" height="74" viewBox="0 0 62 74" fill="none" xmlns="http://www.w3.org/2000/svg">
<path d="M27.9649 0.112789C25.4356 0.517475 23.2387 1.26904 21.5477 2.28076C18.9317 3.84169 16.5469 6.21201 14.9859 8.78466C14.1766 10.1144 13.4539 11.9644 13.0492 13.6698C12.6301 15.4765 12.5289 19.0897 12.8469 20.9108C13.7719 26.2296 16.966 30.739 21.7789 33.4995C26.5195 36.2167 32.8356 36.4479 38.0242 34.1065C39.7586 33.3261 41.3918 32.1265 43.0828 30.4499C46.8695 26.6632 48.5317 22.3561 48.3004 17.0374C48.0836 12.3112 46.4793 8.59677 43.184 5.2581C40.5535 2.58427 37.2727 0.864349 33.6449 0.228413C32.5031 0.0260696 28.9188 -0.046196 27.9649 0.112789ZM34.1508 4.91123C36.3188 5.54716 38.2844 6.74677 40.0043 8.4956C41.7242 10.2444 42.6781 11.8487 43.3863 14.1323C43.7477 15.303 43.7766 15.5921 43.7766 17.8612C43.7621 20.1015 43.7332 20.4339 43.3863 21.5901C42.7215 23.7726 41.7531 25.3913 40.0477 27.1546C37.5039 29.7995 34.1219 31.2304 30.5086 31.2304C26.9242 31.2159 23.9758 30.0452 21.4176 27.6171C19.4231 25.7237 18.209 23.8015 17.5297 21.4456C17.2406 20.4628 17.1973 20.0003 17.2117 17.789C17.2117 15.4476 17.2406 15.1585 17.6164 13.9589C18.5992 10.7647 20.8684 7.94638 23.918 6.13974C25.0453 5.4749 26.1438 5.05576 27.6902 4.70888C29.0922 4.39091 32.7633 4.50654 34.1508 4.91123Z" fill="#4A4A4A"/>
<path d="M14.3789 35.7976C11.0402 36.289 8.51094 37.532 6.38633 39.7144C2.33945 43.8769 0.0703125 51.2624 0.0703125 60.2956C0.0703125 64.1113 0.344922 65.4699 1.55898 67.8691C2.00703 68.7507 2.46953 69.3433 3.4668 70.3406C4.8832 71.7714 6.11172 72.5808 7.83164 73.1878C10.2164 74.055 9.42148 74.0261 31.5203 73.9828L51.7402 73.9394L52.9687 73.5636C54.5297 73.0722 55.3535 72.7109 56.3941 72.046C58.8078 70.514 60.5855 68.0859 61.3516 65.3398C61.8141 63.6199 61.9441 61.5675 61.7852 58.4023C61.0625 44.2382 55.6859 36.2601 46.5371 35.7542C44.5715 35.6531 44.5426 35.6531 41.175 37.821C38.5734 39.4831 36.7668 40.307 34.3676 40.9285C32.5609 41.4054 29.3234 41.4054 27.5312 40.9429C24.973 40.2781 23.2531 39.4831 20.6516 37.7921C19.6977 37.1706 18.527 36.448 18.0211 36.1878C17.1828 35.7542 16.9949 35.7109 15.9254 35.7253C15.275 35.7398 14.5812 35.7687 14.3789 35.7976ZM18.209 41.5933C20.7961 43.2554 22.7184 44.1949 24.9586 44.8742C29.3234 46.1894 33.457 46.1027 37.8074 44.5851C39.7875 43.9058 41.2039 43.1687 43.7621 41.521L45.9012 40.1624L46.7828 40.2492C52.116 40.8562 55.3535 45.221 56.7988 53.705C57.2324 56.2199 57.4926 60.9171 57.3047 62.6081C56.9145 66.1058 54.732 68.5339 51.2633 69.3433C50.2227 69.589 48.9652 69.6035 30.8555 69.6035C9.40703 69.6035 10.7656 69.6613 8.61211 68.6351C7.42695 68.0714 5.93828 66.6117 5.38906 65.4843C4.69531 64.039 4.55078 63.1429 4.55078 60.339C4.56523 52.7222 6.34297 46.4495 9.49375 43.0097C10.7078 41.68 12.2254 40.8273 14.1621 40.4081C15.7953 40.0468 15.8387 40.0613 18.209 41.5933Z" fill="#4A4A4A"/>
</svg>

<svg xmlns="http://www.w3.org/2000/svg" width="62" height="74" fill="none"><path fill="#4A4A4A" d="M27.965.113c-2.53.404-4.726 1.156-6.417 2.168-2.616 1.56-5.001 3.931-6.562 6.504-.81 1.33-1.532 3.18-1.937 4.885-.419 1.806-.52 5.42-.202 7.24.925 5.32 4.119 9.829 8.932 12.59 4.74 2.717 11.057 2.948 16.245.606 1.735-.78 3.368-1.98 5.059-3.656 3.787-3.787 5.449-8.094 5.217-13.413-.216-4.726-1.82-8.44-5.116-11.779-2.63-2.674-5.911-4.394-9.54-5.03-1.14-.202-4.725-.274-5.68-.115M34.15 4.91c2.168.636 4.133 1.836 5.853 3.585s2.674 3.353 3.382 5.636c.362 1.171.39 1.46.39 3.73-.014 2.24-.043 2.572-.39 3.728-.665 2.183-1.633 3.801-3.338 5.565-2.544 2.644-5.926 4.075-9.54 4.075-3.584-.014-6.532-1.185-9.09-3.613-1.995-1.893-3.209-3.815-3.888-6.171-.29-.983-.333-1.446-.318-3.657 0-2.341.029-2.63.404-3.83.983-3.194 3.252-6.013 6.302-7.82 1.127-.664 2.226-1.083 3.772-1.43 1.402-.318 5.073-.202 6.46.202"/><path fill="#4A4A4A" d="M14.379 35.798c-3.339.491-5.868 1.734-7.993 3.916C2.34 43.877.07 51.262.07 60.296c0 3.815.275 5.174 1.489 7.573.448.882.91 1.474 1.908 2.472 1.416 1.43 2.645 2.24 4.365 2.847 2.384.867 1.59.838 23.688.795l20.22-.044 1.229-.375c1.56-.492 2.384-.853 3.425-1.518 2.414-1.532 4.192-3.96 4.958-6.706.462-1.72.592-3.773.433-6.938-.722-14.164-6.1-22.142-15.248-22.648-1.965-.1-1.994-.1-5.362 2.067-2.602 1.662-4.408 2.486-6.807 3.108-1.807.476-5.045.476-6.837.014-2.558-.665-4.278-1.46-6.88-3.15-.953-.622-2.124-1.345-2.63-1.605-.838-.434-1.026-.477-2.096-.463-.65.015-1.344.044-1.546.073m3.83 5.795c2.587 1.662 4.51 2.602 6.75 3.281 4.364 1.315 8.498 1.229 12.848-.289 1.98-.68 3.397-1.416 5.955-3.064l2.14-1.359.88.087c5.334.607 8.572 4.972 10.017 13.456.433 2.515.694 7.212.506 8.903-.39 3.498-2.573 5.926-6.042 6.735-1.04.246-2.298.26-20.407.26-21.449 0-20.09.058-22.244-.968-1.185-.564-2.674-2.023-3.223-3.15-.694-1.446-.838-2.342-.838-5.146.014-7.617 1.792-13.89 4.943-17.33 1.214-1.329 2.731-2.182 4.668-2.6 1.633-.362 1.677-.348 4.047 1.184"/></svg>
